src/4-icons/push-button.svg

<svg width="260" height="260" viewBox="0 0 260 260" fill="none" xmlns="http://www.w3.org/2000/svg">
<path d="M112.245 72.702C130.391 72.702 145.102 57.9913 145.102 39.8447C145.102 21.6981 130.391 6.9873 112.245 6.9873C94.098 6.9873 79.3872 21.6981 79.3872 39.8447C79.3872 57.9913 94.098 72.702 112.245 72.702Z" stroke="black" stroke-width="8" stroke-linecap="round" stroke-linejoin="round"/>
<path d="M92.7919 236.659L93.9815 215.607C73.7093 201.183 70.9903 185.679 68.0415 169.275L67.6716 167.216C67.5017 166.216 67.3317 165.297 67.1518 164.307C65.0726 153.041 62.9334 137.777 64.4029 128.951C64.5828 127.841 65.1526 124.482 77.8877 105.68L78.0776 105.41L78.1476 105.31C79.83 103.109 82.0926 101.422 84.6813 100.436C87.27 99.4511 90.0822 99.2071 92.8019 99.732L93.9315 43.8835C93.9421 39.1379 95.8374 34.5909 99.2005 31.2428C102.564 27.8947 107.119 26.0197 111.865 26.0303C116.61 26.0409 121.157 27.9363 124.505 31.2994C127.853 34.6625 129.728 39.2179 129.718 43.9634L130.417 89.4959C133.961 88.1702 137.815 87.9105 141.504 88.749C145.194 89.5873 148.557 91.4872 151.179 94.2141C154.325 91.8988 158.129 90.6516 162.035 90.6555H162.215C165.584 90.6736 168.883 91.6151 171.754 93.3775C174.625 95.1399 176.958 97.6559 178.499 100.652C180.956 99.3192 183.685 98.5661 186.477 98.45C189.269 98.3338 192.051 98.8575 194.61 99.9812C197.169 101.105 199.437 102.799 201.241 104.933C203.045 107.068 204.337 109.587 205.019 112.297L205.089 112.587C207.018 120.154 207.088 120.394 207.668 125.232L207.718 125.622C207.838 126.622 207.988 127.711 208.178 129.151C208.187 129.317 208.187 129.484 208.178 129.65C211.086 176.113 209.677 199.004 193.493 218.746V236.659H92.7919Z" fill="white"/>
<path d="M111.825 28.8491C115.858 28.8665 119.724 30.4584 122.6 33.2856C125.475 36.1128 127.133 39.9515 127.219 43.9833L127.979 93.4943C131.608 91.1229 136.01 90.2382 140.273 91.0235C144.536 91.8088 148.334 94.2039 150.88 97.7126C153.862 94.7968 157.865 93.1612 162.036 93.1544H162.185C165.575 93.181 168.868 94.2836 171.59 96.303C174.311 98.3224 176.321 101.154 177.33 104.39C179.406 102.748 181.861 101.651 184.47 101.201C187.079 100.751 189.759 100.962 192.266 101.813C194.773 102.665 197.026 104.131 198.821 106.078C200.615 108.024 201.894 110.389 202.54 112.957L202.63 113.287C204.519 120.714 204.549 120.864 205.139 125.582C205.269 126.582 205.429 127.871 205.649 129.52C205.654 129.61 205.654 129.7 205.649 129.79C208.648 177.362 206.998 198.764 190.954 217.886L191.004 234.2H95.4311L96.5507 214.398C75.5588 199.943 73.2897 184.509 70.2508 167.496C70.0409 166.316 69.831 165.117 69.6011 163.887C67.9417 154.891 65.3727 138.337 66.8621 129.38C67.4119 126.142 74.2993 115.456 79.9871 107.059C80.0303 106.99 80.0771 106.923 80.127 106.859C81.7646 104.735 84.0457 103.197 86.6295 102.477C89.2132 101.756 91.9607 101.891 94.4615 102.861L95.2312 103.181L96.4308 43.9833C96.5346 39.9619 98.1994 36.1387 101.073 33.3233C103.946 30.5078 107.802 28.9211 111.825 28.8991V28.8491ZM111.825 23.901C106.494 23.9305 101.385 26.0339 97.5783 29.7657C93.7719 33.4975 91.5677 38.5645 91.4327 43.8933L90.3631 96.9629H89.9932C87.3215 96.9573 84.6844 97.5677 82.2868 98.7466C79.8892 99.9254 77.7956 101.641 76.1685 103.76V103.84V103.91C76.0886 104.01 75.9986 104.14 75.8887 104.3C62.8937 123.513 62.2939 127.011 62.034 128.501C60.5046 137.717 62.6837 153.301 64.7829 164.747C64.9729 165.746 65.1428 166.696 65.3127 167.636L65.4327 168.335L65.6826 169.715C68.5015 185.599 71.4204 202.013 91.5027 216.827L90.503 233.88L90.2032 239.158H196.022V234.16V219.646C212.206 199.434 213.616 176.152 210.707 129.55C210.701 129.35 210.684 129.15 210.657 128.951V128.841C210.467 127.441 210.327 126.322 210.207 125.402L210.147 124.932C209.537 119.994 209.457 119.634 207.528 112.037V111.957L207.448 111.667C206.305 107.165 203.69 103.175 200.019 100.33C196.347 97.4842 191.831 95.9474 187.186 95.9633C184.565 95.9698 181.968 96.4648 179.529 97.4227C177.627 94.582 175.058 92.2503 172.047 90.6314C169.036 89.0126 165.674 88.156 162.255 88.1363H162.036C158.303 88.1261 154.636 89.1205 151.42 91.0152C147.45 87.6256 142.405 85.7583 137.185 85.7472C135.725 85.7491 134.269 85.8931 132.837 86.1771L132.187 43.9033C132.08 38.558 129.887 33.4664 126.077 29.7159C122.267 25.9655 117.141 23.8535 111.795 23.8311L111.825 23.901Z" fill="white"/>
<path d="M98.5799 147.393V114.456C98.591 112.724 98.0722 111.029 97.0932 109.6C96.1141 108.171 94.7215 107.075 93.102 106.459C91.3965 105.812 89.528 105.731 87.7728 106.227C86.0176 106.724 84.4689 107.773 83.3557 109.218C83.3557 109.218 71.3803 126.951 70.8705 130C69.681 137.117 71.3104 150.722 73.5895 163.127C77.0781 182.12 77.8479 197.254 100.719 212.298L98.5699 253.003" stroke="black" stroke-width="8" stroke-linecap="round" stroke-linejoin="round"/>
<path d="M150.18 115.956V107.619C150.174 104.203 148.813 100.93 146.395 98.5172C143.977 96.1049 140.7 94.7513 137.285 94.7539C133.865 94.7539 130.585 96.1125 128.167 98.5308C125.748 100.949 124.39 104.229 124.39 107.649V115.956" fill="white"/>
<path d="M150.18 115.956V107.619C150.174 104.203 148.813 100.93 146.395 98.5172C143.977 96.1049 140.7 94.7513 137.285 94.7539V94.7539C133.865 94.7539 130.585 96.1125 128.167 98.5308C125.748 100.949 124.39 104.229 124.39 107.649V115.956" stroke="black" stroke-width="8" stroke-linecap="round" stroke-linejoin="round"/>
<path d="M124.38 115.955L123.28 44.0531C123.233 41.0621 122.011 38.2096 119.879 36.1112C117.747 34.0129 114.876 32.837 111.884 32.8374C108.905 32.8367 106.044 34.0029 103.914 36.0863C101.784 38.1696 100.554 41.0043 100.489 43.9831L98.5796 138.267V147.363" fill="white"/>
<path d="M124.38 115.955L123.28 44.0531C123.233 41.0621 122.011 38.2096 119.879 36.1112C117.747 34.0129 114.876 32.837 111.884 32.8374V32.8374C108.905 32.8367 106.044 34.0029 103.914 36.0863C101.784 38.1696 100.554 41.0043 100.489 43.9831L98.5796 138.267V147.363" stroke="black" stroke-width="8" stroke-linecap="round" stroke-linejoin="round"/>
<path d="M175.12 117.855L174.55 112.377L174.08 107.909C173.776 104.974 172.4 102.255 170.217 100.271C168.033 98.2864 165.195 97.1764 162.245 97.1528C160.661 97.1383 159.089 97.4379 157.621 98.0342C156.153 98.6305 154.817 99.5118 153.692 100.627C152.566 101.742 151.673 103.07 151.063 104.532C150.453 105.995 150.14 107.564 150.14 109.148V115.956" fill="white"/>
<path d="M175.12 117.855L174.55 112.377L174.08 107.909C173.776 104.974 172.4 102.255 170.217 100.271C168.033 98.2864 165.195 97.1764 162.245 97.1528V97.1528C160.661 97.1383 159.089 97.4379 157.621 98.0342C156.153 98.6305 154.817 99.5118 153.692 100.627C152.566 101.742 151.673 103.07 151.063 104.532C150.453 105.995 150.14 107.564 150.14 109.148V115.956" stroke="black" stroke-width="8" stroke-linecap="round" stroke-linejoin="round"/>
<path d="M187.136 253.003L187.026 216.377C203.149 197.844 204.689 177.002 201.74 130C200.58 121.164 201.11 123.263 198.811 114.226L198.731 113.907C198.086 111.35 196.606 109.081 194.525 107.46C192.445 105.84 189.883 104.96 187.246 104.96V104.96C185.586 104.96 183.944 105.308 182.427 105.982C180.91 106.656 179.552 107.642 178.44 108.874C177.328 110.107 176.487 111.559 175.972 113.137C175.457 114.715 175.279 116.384 175.45 118.035V118.035" stroke="black" stroke-width="8" stroke-linecap="round" stroke-linejoin="round"/>
</svg>

<svg width="260" height="260" fill="none" xmlns="http://www.w3.org/2000/svg"><path d="M112.245 72.702c18.146 0 32.857-14.71 32.857-32.857S130.391 6.987 112.245 6.987c-18.147 0-32.858 14.711-32.858 32.858 0 18.146 14.711 32.857 32.858 32.857Z" stroke="#000" stroke-width="8" stroke-linecap="round" stroke-linejoin="round"/><path d="m92.792 236.659 1.19-21.052c-20.273-14.424-22.992-29.928-25.94-46.332l-.37-2.059c-.17-1-.34-1.919-.52-2.909-2.08-11.266-4.219-26.53-2.75-35.356.18-1.11.75-4.469 13.486-23.271l.19-.27.07-.1a14.896 14.896 0 0 1 14.654-5.578l1.13-55.849a17.893 17.893 0 1 1 35.786.08l.699 45.533a19.383 19.383 0 0 1 20.762 4.718 18.284 18.284 0 0 1 10.856-3.558h.18a18.422 18.422 0 0 1 16.284 9.996 18.33 18.33 0 0 1 22.742 4.281 18.348 18.348 0 0 1 3.778 7.364l.07.29c1.929 7.567 1.999 7.807 2.579 12.645l.05.39c.12 1 .27 2.089.46 3.529.009.166.009.333 0 .499 2.908 46.463 1.499 69.354-14.685 89.096v17.913H92.792Z" fill="#fff"/><path d="M111.825 28.85a15.465 15.465 0 0 1 15.394 15.133l.76 49.511a16.883 16.883 0 0 1 22.901 4.219 15.994 15.994 0 0 1 11.156-4.559h.149a15.995 15.995 0 0 1 15.145 11.236 15.855 15.855 0 0 1 25.21 8.567l.09.33c1.889 7.427 1.919 7.577 2.509 12.295.13 1 .29 2.289.51 3.938.005.09.005.18 0 .27 2.999 47.572 1.349 68.974-14.695 88.096l.05 16.314H95.431l1.12-19.802c-20.992-14.455-23.261-29.889-26.3-46.902-.21-1.18-.42-2.379-.65-3.609-1.66-8.996-4.228-25.55-2.739-34.507.55-3.238 7.437-13.924 13.125-22.321.043-.069.09-.136.14-.2a12.423 12.423 0 0 1 14.335-3.998l.77.32 1.199-59.198A15.483 15.483 0 0 1 111.825 28.9v-.05Zm0-4.949a20.512 20.512 0 0 0-20.392 19.992l-1.07 53.07h-.37a17.383 17.383 0 0 0-13.825 6.797v.15c-.08.1-.17.23-.28.39-12.994 19.213-13.594 22.711-13.854 24.201-1.53 9.216.65 24.8 2.749 36.246.19.999.36 1.949.53 2.889l.12.699.25 1.38c2.818 15.884 5.737 32.298 25.82 47.112l-1 17.053-.3 5.278h105.819v-19.512c16.184-20.212 17.594-43.494 14.685-90.096-.006-.2-.023-.4-.05-.599v-.11c-.19-1.4-.33-2.519-.45-3.439l-.06-.47c-.61-4.938-.69-5.298-2.619-12.895v-.08l-.08-.29a20.827 20.827 0 0 0-20.262-15.704 21.09 21.09 0 0 0-7.657 1.46 20.935 20.935 0 0 0-17.274-9.287h-.219c-3.733-.01-7.4.985-10.616 2.88a21.994 21.994 0 0 0-14.235-5.269 22.5 22.5 0 0 0-4.348.43l-.65-42.274a20.484 20.484 0 0 0-20.392-20.072l.03.07Z" fill="#fff"/><path d="M98.58 147.393v-32.937a8.497 8.497 0 0 0-10.807-8.229 8.5 8.5 0 0 0-4.417 2.991S71.38 126.951 70.87 130c-1.19 7.117.44 20.722 2.719 33.127 3.488 18.993 4.258 34.127 27.129 49.171l-2.15 40.705" stroke="#000" stroke-width="8" stroke-linecap="round" stroke-linejoin="round"/><path d="M150.18 115.956v-8.337a12.889 12.889 0 0 0-12.895-12.865 12.894 12.894 0 0 0-12.895 12.895v8.307" fill="#fff"/><path d="M150.18 115.956v-8.337a12.889 12.889 0 0 0-12.895-12.865v0a12.894 12.894 0 0 0-12.895 12.895v8.307" stroke="#000" stroke-width="8" stroke-linecap="round" stroke-linejoin="round"/><path d="m124.38 115.955-1.1-71.902a11.395 11.395 0 0 0-11.396-11.216 11.394 11.394 0 0 0-11.395 11.146l-1.91 94.284v9.096" fill="#fff"/><path d="m124.38 115.955-1.1-71.902a11.395 11.395 0 0 0-11.396-11.216v0a11.394 11.394 0 0 0-11.395 11.146l-1.91 94.284v9.096" stroke="#000" stroke-width="8" stroke-linecap="round" stroke-linejoin="round"/><path d="m175.12 117.855-.57-5.478-.47-4.468a11.99 11.99 0 0 0-11.835-10.756 11.997 11.997 0 0 0-12.105 11.995v6.808" fill="#fff"/><path d="m175.12 117.855-.57-5.478-.47-4.468a11.99 11.99 0 0 0-11.835-10.756v0a11.997 11.997 0 0 0-12.105 11.995v6.808m36.996 137.047-.11-36.626c16.123-18.533 17.663-39.375 14.714-86.377-1.16-8.836-.63-6.737-2.929-15.774l-.08-.319a11.844 11.844 0 0 0-11.485-8.947v0a11.858 11.858 0 0 0-11.796 13.075v0" stroke="#000" stroke-width="8" stroke-linecap="round" stroke-linejoin="round"/></svg>
